assets/images/logo.svg

<svg width="654" height="86" viewBox="0 0 654 86" fill="none" xmlns="http://www.w3.org/2000/svg">
<g clip-path="url(#clip0_9_176)">
<path d="M177.37 42.9998C177.21 57.0098 168.62 71.0298 149.58 71.0298C130.54 71.0298 121.71 57.3298 121.71 43.0798C121.71 28.8298 130.85 14.5098 149.58 14.5098C168.31 14.5098 177.53 28.8298 177.37 42.9998ZM131.77 43.2298C132 52.1298 136.8 61.6598 149.58 61.6598C162.36 61.6598 167.15 52.0598 167.31 43.1598C167.47 34.0198 162.36 23.8098 149.58 23.8098C136.8 23.8098 131.54 34.1098 131.77 43.2398V43.2298Z" fill="white"/>
<path d="M184.17 85.7295V31.6195H193L193.62 36.8895C196.56 32.6295 201.67 30.7695 206.01 30.7695C217.78 30.7695 225.6 39.5195 225.6 50.7395C225.6 61.9595 218.55 70.7095 206.32 70.7095C202.29 70.7095 196.33 69.4695 193.62 65.2895V85.7295H184.18H184.17ZM216.14 50.7395C216.14 44.7795 212.11 39.8995 205.3 39.8995C198.49 39.8995 194.46 44.7795 194.46 50.7395C194.46 56.6995 198.87 61.5795 205.3 61.5795C211.73 61.5795 216.14 56.6995 216.14 50.7395Z" fill="white"/>
<path d="M240.61 54.07C241.23 58.79 245.33 62.2 251.99 62.2C255.47 62.2 260.04 60.88 262.21 58.64L268.25 64.6C264.22 68.78 257.64 70.79 251.84 70.79C238.68 70.79 230.86 62.66 230.86 50.43C230.86 38.2 238.76 30.46 251.14 30.46C263.52 30.46 271.89 38.36 270.42 54.07H240.61ZM261.36 46.25C260.74 41.3 256.87 38.82 251.45 38.82C246.34 38.82 242.16 41.3 240.77 46.25H261.36Z" fill="white"/>
<path d="M305.79 69.78V49.81C305.79 44 302.62 39.59 296.58 39.59C290.54 39.59 286.83 44.47 286.83 50.27V69.78H277.46V31.54H285.9L286.52 36.73C290.39 32.94 294.26 31 299.06 31C308.04 31 315.24 37.74 315.24 49.74V69.79H305.79V69.78Z" fill="white"/>
<path d="M387.62 50.6599C387.62 39.1999 396.29 30.9199 407.05 30.9199C417.81 30.9199 427.41 37.4999 425.94 52.4399H391.49C392.26 61.4199 399.15 66.6099 407.05 66.6099C412.08 66.6099 417.97 64.5999 420.83 60.7999L423.54 62.9699C419.82 67.8499 413.17 70.3299 407.05 70.3299C396.29 70.3299 387.62 62.8199 387.62 50.6599ZM422.54 49.1099C422.46 39.6699 416.27 34.3999 407.06 34.3999C399.16 34.3999 392.35 39.7399 391.5 49.1099H422.55H422.54Z" fill="white"/>
<path d="M378.17 15.5898V69.7798H374.38V15.5898H378.17Z" fill="white"/>
<path d="M489.1 69.7795V46.8595C489.1 39.5095 484.15 34.3195 476.87 34.3195C469.59 34.3195 464.56 39.7395 464.56 47.0895V69.7695H460.77V47.0895C460.77 39.7295 455.74 34.3895 448.46 34.3895C441.18 34.3895 436.23 39.7295 436.23 47.0895V69.7695H432.44V31.5395H436L436.08 37.8895C438.71 32.8595 443.59 30.7695 448.54 30.7695C454.35 30.7695 460.46 33.3995 462.71 40.2095C465.03 33.9395 470.99 30.7695 476.88 30.7695C486.25 30.7695 492.91 37.3495 492.91 46.8695V69.7895H489.12L489.1 69.7795Z" fill="white"/>
<path d="M501.41 50.6599C501.41 39.1999 510.08 30.9199 520.84 30.9199C531.6 30.9199 541.2 37.4999 539.73 52.4399H505.28C506.05 61.4199 512.94 66.6099 520.84 66.6099C525.87 66.6099 531.76 64.5999 534.62 60.7999L537.33 62.9699C533.61 67.8499 526.96 70.3299 520.84 70.3299C510.08 70.3299 501.41 62.8199 501.41 50.6599ZM536.33 49.1099C536.25 39.6699 530.06 34.3999 520.85 34.3999C512.95 34.3999 506.14 39.7399 505.29 49.1099H536.34H536.33Z" fill="white"/>
<path d="M553.27 31.5398V38.3498C556.21 33.0898 561.55 30.9198 566.9 30.8398C577.12 30.8398 584.16 37.1098 584.16 47.7198V69.7798H580.37V47.7898C580.37 39.1198 575.03 34.4698 566.74 34.5498C558.84 34.6298 553.35 40.5898 553.35 48.4898V69.7798H549.56V31.5398H553.28H553.27Z" fill="white"/>
<path d="M601.19 20V31.54H614.2V34.71H601.19V58.01C601.19 63.2 602.27 66.84 608.24 66.84C610.1 66.84 612.19 66.22 614.12 65.29L615.44 68.39C613.04 69.55 610.64 70.33 608.24 70.33C600.11 70.33 597.48 65.53 597.48 58.02V34.72H589.35V31.55H597.48V20.4L601.2 20.01L601.19 20Z" fill="white"/>
<path d="M649.19 38.5096C645.32 35.0996 641.53 34.4796 637.27 34.4796C631.31 34.3996 625.58 36.6496 625.73 41.5196C625.88 46.6296 632.54 47.6396 637.34 48.4896C644.15 49.6496 653.52 50.8096 653.13 59.7196C652.9 68.1596 644.15 70.3996 637.41 70.3996C630.67 70.3996 624.02 67.8396 620.69 62.7396L623.48 60.2596C626.65 64.8296 632.38 66.7596 637.49 66.7596C642.14 66.7596 649.18 65.5196 649.41 59.4796C649.56 53.9796 643.22 52.8996 636.95 51.8896C629.52 50.6496 622.16 49.2596 622.09 41.5896C622.01 34.0796 629.52 30.8296 637.26 30.9096C642.83 30.9096 647.71 32.4596 651.51 36.0196L649.19 38.4996V38.5096Z" fill="white"/>
<path d="M327.04 15.4102V19.3602H331.14H343.83H365.36V15.4102H327.04Z" fill="white"/>
<path d="M331.14 65.5498H327.04V69.5998H365.36V65.5798H331.14V65.5498Z" fill="white"/>
<path d="M331.14 40.3701H327.04V44.1901H345.52V44.2101H365.36V40.4101H331.14V40.3701Z" fill="white"/>
<path d="M41.76 65.25H76.26C79.19 60.97 81.33 56.11 82.5 50.89H63.41C59.84 59.32 51.48 65.25 41.76 65.25Z" fill="#01BD9C"/>
<path d="M41.76 18.26C51.48 18.26 59.84 24.19 63.41 32.62H82.5C81.33 27.4 79.19 22.54 76.26 18.26H41.76Z" fill="#01BD9C"/>
<path d="M41.76 65.25C28.8 65.25 18.26 54.71 18.26 41.75C18.26 28.79 28.8 18.25 41.76 18.25H39.83V0.05C17.69 1.06 0 19.38 0 41.76C0 64.14 17.69 82.45 39.82 83.47V65.26H41.75L41.76 65.25Z" fill="#01BD9C"/>
<path d="M39.82 0V0.05C40.46 0.02 41.1 0 41.75 0H39.82Z" fill="#FD0177"/>
<path d="M76.26 18.26H107.34V0H41.76C56.08 0 68.73 7.25 76.26 18.26Z" fill="#FD0177"/>
<path d="M41.76 18.26H76.26C68.73 7.25 56.08 0 41.76 0C41.11 0 40.47 0.02 39.83 0.05V18.26H41.76Z" fill="#01BD9C"/>
<path d="M82.5 50.89H107.34V32.63H82.5C83.16 35.57 83.52 38.62 83.52 41.76C83.52 44.9 83.16 47.95 82.5 50.89Z" fill="#0FBBFB"/>
<path d="M65.25 41.76C65.25 45 64.59 48.08 63.4 50.89H82.49C83.15 47.95 83.51 44.9 83.51 41.76C83.51 38.62 83.15 35.57 82.49 32.63H63.4C64.59 35.44 65.25 38.52 65.25 41.76Z" fill="#01BD9C"/>
<path d="M39.82 83.52H41.75C41.1 83.52 40.46 83.5 39.82 83.47V83.52Z" fill="#F4E301"/>
<path d="M41.76 83.52H107.34V65.26H76.26C68.73 76.28 56.08 83.52 41.76 83.52Z" fill="#F4E301"/>
<path d="M39.82 65.25V83.46C40.46 83.49 41.1 83.51 41.75 83.51C56.07 83.51 68.72 76.26 76.25 65.25H39.82Z" fill="#01BD9C"/>
</g>
<defs>
<clipPath id="clip0_9_176">
<rect width="653.15" height="85.73" fill="white"/>
</clipPath>
</defs>
</svg>

<?xml version="1.0" encoding="UTF-8"?>
<svg id="Layer_1" data-name="Layer 1" xmlns="http://www.w3.org/2000/svg" viewBox="0 0 653.15 85.73">
  <defs>
    <style>
      .cls-1 {
        fill: #fd0177;
      }

      .cls-2 {
        fill: #01bd9c;
      }

      .cls-3 {
        fill: #f4e301;
      }

      .cls-4 {
        fill: #fff;
      }

      .cls-5 {
        fill: #0fbbfb;
      }
    </style>
  </defs>
  <g>
    <path class="cls-4" d="m177.37,43c-.16,14.01-8.75,28.03-27.79,28.03s-27.87-13.7-27.87-27.95,9.14-28.57,27.87-28.57,27.95,14.32,27.79,28.49Zm-45.6.23c.23,8.9,5.03,18.43,17.81,18.43s17.57-9.6,17.73-18.5c.16-9.14-4.95-19.35-17.73-19.35s-18.04,10.3-17.81,19.43Z"/>
    <path class="cls-4" d="m184.17,85.73V31.62h8.83l.62,5.27c2.94-4.26,8.05-6.12,12.39-6.12,11.77,0,19.59,8.75,19.59,19.97s-7.05,19.97-19.28,19.97c-4.03,0-9.99-1.24-12.7-5.42v20.44h-9.44Zm31.97-34.99c0-5.96-4.03-10.84-10.84-10.84s-10.84,4.88-10.84,10.84,4.41,10.84,10.84,10.84,10.84-4.88,10.84-10.84Z"/>
    <path class="cls-4" d="m240.61,54.07c.62,4.72,4.72,8.13,11.38,8.13,3.48,0,8.05-1.32,10.22-3.56l6.04,5.96c-4.03,4.18-10.61,6.19-16.41,6.19-13.16,0-20.98-8.13-20.98-20.36s7.9-19.97,20.28-19.97,20.75,7.9,19.28,23.61h-29.81Zm20.75-7.82c-.62-4.95-4.49-7.43-9.91-7.43-5.11,0-9.29,2.48-10.68,7.43h20.59Z"/>
    <path class="cls-4" d="m305.79,69.78v-19.97c0-5.81-3.17-10.22-9.21-10.22s-9.75,4.88-9.75,10.68v19.51h-9.37V31.54h8.44l.62,5.19c3.87-3.79,7.74-5.73,12.54-5.73,8.98,0,16.18,6.74,16.18,18.74v20.05h-9.45Z"/>
    <path class="cls-4" d="m387.62,50.66c0-11.46,8.67-19.74,19.43-19.74s20.36,6.58,18.89,21.52h-34.45c.77,8.98,7.66,14.17,15.56,14.17,5.03,0,10.92-2.01,13.78-5.81l2.71,2.17c-3.72,4.88-10.37,7.36-16.49,7.36-10.76,0-19.43-7.51-19.43-19.67Zm34.92-1.55c-.08-9.44-6.27-14.71-15.48-14.71-7.9,0-14.71,5.34-15.56,14.71h31.05Z"/>
    <path class="cls-4" d="m378.17,15.59v54.19h-3.79V15.59h3.79Z"/>
    <path class="cls-4" d="m489.1,69.78v-22.92c0-7.35-4.95-12.54-12.23-12.54s-12.31,5.42-12.31,12.77v22.68h-3.79v-22.68c0-7.36-5.03-12.7-12.31-12.7s-12.23,5.34-12.23,12.7v22.68h-3.79V31.54h3.56l.08,6.35c2.63-5.03,7.51-7.12,12.46-7.12,5.81,0,11.92,2.63,14.17,9.44,2.32-6.27,8.28-9.44,14.17-9.44,9.37,0,16.03,6.58,16.03,16.1v22.92h-3.79Z"/>
    <path class="cls-4" d="m501.41,50.66c0-11.46,8.67-19.74,19.43-19.74s20.36,6.58,18.89,21.52h-34.45c.77,8.98,7.66,14.17,15.56,14.17,5.03,0,10.92-2.01,13.78-5.81l2.71,2.17c-3.72,4.88-10.37,7.36-16.49,7.36-10.76,0-19.43-7.51-19.43-19.67Zm34.92-1.55c-.08-9.44-6.27-14.71-15.48-14.71-7.9,0-14.71,5.34-15.56,14.71h31.05Z"/>
    <path class="cls-4" d="m553.27,31.54v6.81c2.94-5.26,8.28-7.43,13.63-7.51,10.22,0,17.26,6.27,17.26,16.88v22.06h-3.79v-21.99c0-8.67-5.34-13.32-13.63-13.24-7.9.08-13.39,6.04-13.39,13.94v21.29h-3.79V31.54h3.72Z"/>
    <path class="cls-4" d="m601.19,20v11.54h13.01v3.17h-13.01v23.3c0,5.19,1.08,8.83,7.05,8.83,1.86,0,3.95-.62,5.88-1.55l1.32,3.1c-2.4,1.16-4.8,1.94-7.2,1.94-8.13,0-10.76-4.8-10.76-12.31v-23.3h-8.13v-3.17h8.13v-11.15l3.72-.39Z"/>
    <path class="cls-4" d="m649.19,38.51c-3.87-3.41-7.66-4.03-11.92-4.03-5.96-.08-11.69,2.17-11.54,7.04.15,5.11,6.81,6.12,11.61,6.97,6.81,1.16,16.18,2.32,15.79,11.23-.23,8.44-8.98,10.68-15.72,10.68s-13.39-2.56-16.72-7.66l2.79-2.48c3.17,4.57,8.9,6.5,14.01,6.5,4.65,0,11.69-1.24,11.92-7.28.15-5.5-6.19-6.58-12.46-7.59-7.43-1.24-14.79-2.63-14.86-10.3-.08-7.51,7.43-10.76,15.17-10.68,5.57,0,10.45,1.55,14.25,5.11l-2.32,2.48Z"/>
    <g>
      <polygon class="cls-4" points="327.04 15.41 327.04 19.36 331.14 19.36 343.83 19.36 365.36 19.36 365.36 15.41 327.04 15.41"/>
      <polygon class="cls-4" points="331.14 65.55 327.04 65.55 327.04 69.6 365.36 69.6 365.36 65.58 331.14 65.58 331.14 65.55"/>
      <polygon class="cls-4" points="331.14 40.37 327.04 40.37 327.04 44.19 345.52 44.19 345.52 44.21 365.36 44.21 365.36 40.41 331.14 40.41 331.14 40.37"/>
    </g>
  </g>
  <g>
    <path class="cls-2" d="m41.76,65.25h34.5c2.93-4.28,5.07-9.14,6.24-14.36h-19.09c-3.57,8.43-11.93,14.36-21.65,14.36Z"/>
    <path class="cls-2" d="m41.76,18.26c9.72,0,18.08,5.93,21.65,14.36h19.09c-1.17-5.22-3.31-10.08-6.24-14.36h-34.5Z"/>
    <path class="cls-2" d="m41.76,65.25c-12.96,0-23.5-10.54-23.5-23.5s10.54-23.5,23.5-23.5h-1.93V.05C17.69,1.06,0,19.38,0,41.76s17.69,40.69,39.82,41.71v-18.21h1.93Z"/>
    <path class="cls-1" d="m39.82,0v.05c.64-.03,1.28-.05,1.93-.05h-1.93Z"/>
    <path class="cls-1" d="m76.26,18.26h31.08V0H41.76c14.32,0,26.97,7.25,34.5,18.26Z"/>
    <path class="cls-2" d="m41.76,18.26h34.5C68.73,7.25,56.08,0,41.76,0c-.65,0-1.29.02-1.93.05v18.21h1.93Z"/>
    <path class="cls-5" d="m82.5,50.89h24.84v-18.26h-24.84c.66,2.94,1.02,5.99,1.02,9.13s-.36,6.19-1.02,9.13Z"/>
    <path class="cls-2" d="m65.25,41.76c0,3.24-.66,6.32-1.85,9.13h19.09c.66-2.94,1.02-5.99,1.02-9.13s-.36-6.19-1.02-9.13h-19.09c1.19,2.81,1.85,5.89,1.85,9.13Z"/>
    <path class="cls-3" d="m39.82,83.52h1.93c-.65,0-1.29-.02-1.93-.05v.05Z"/>
    <path class="cls-3" d="m41.76,83.52h65.58v-18.26h-31.08c-7.53,11.02-20.18,18.26-34.5,18.26Z"/>
    <path class="cls-2" d="m39.82,65.25v18.21c.64.03,1.28.05,1.93.05,14.32,0,26.97-7.25,34.5-18.26h-36.43Z"/>
  </g>
</svg>
